img/time.svg

<svg fill="none" height="17" viewBox="0 0 16 17" width="16" xmlns="http://www.w3.org/2000/svg"><path d="m7.99967 15.1666c-3.682 0-6.66666-2.9847-6.66666-6.66668 0-3.682 2.98466-6.66667 6.66666-6.66667 3.68203 0 6.66663 2.98467 6.66663 6.66667 0 3.68198-2.9846 6.66668-6.66663 6.66668zm.66667-6.66668v-3.33333h-1.33333v4.66666h3.99999v-1.33333z" fill="#008699"/></svg>

<svg width="16" height="17" viewBox="0 0 16 17" fill="none" xmlns="http://www.w3.org/2000/svg">
<path d="M7.99967 15.1666C4.31767 15.1666 1.33301 12.1819 1.33301 8.49992C1.33301 4.81792 4.31767 1.83325 7.99967 1.83325C11.6817 1.83325 14.6663 4.81792 14.6663 8.49992C14.6663 12.1819 11.6817 15.1666 7.99967 15.1666ZM8.66634 8.49992V5.16659H7.33301V9.83325H11.333V8.49992H8.66634Z" fill="#008699"/>
</svg>
